X:238
T:Paddy Taylor's
R:Reel
O:Ireland
S:Music from Ireland Vol. 3
B:Music from Ireland Vol. 3
Z:Transcription, chords:Mike Long
M:C|
L:1/8
K:D
"A"BAeA BAeA|"A"BAeA "G"dBGA|"A"Be~e2 "D"d2ed|\
"G"BG~G2 BcdB:|"A"A2ce a3f|"G"gfed "A"ea~a2|
"A"ABcd egge|"G"dBGA BcdB|"A"A2ce a3f|\
"G"gfed efge|"D"~f2fd "A"~e2ed|"G"BG~G2 BcdB|]
